X:1
T:Ecco solinga delle selve
T:Marco da Gagliano
T:Source : Musiche di P.Benedetti---Libro secondo---Venetia---R.Amadino---1613. Editor : André Vierendeels (16/03/16).
T:Notes : Original clefs : C1, F4 Editorial accidentals above the staff Figures in BC are notated in original print Print is damaged over "Alma" - editorial reconstruction. 
T:Ecco solinga delle selve
T:©
T:©
T:©
T:©
T:©
T:©
C:Marco da Gagliano
Z:©
%%score 1 2
L:1/8
Q:1/4=98
M:4/4
K:C
V:1 treble nm="Soprano" snm="S"
V:2 bass nm="BC" snm="BC"
V:1
 G6 GG | B4 B4 | z dcB c>d e2- | e2 A2 B4 | B4 z2 Bc | d2 ed c4 | d2 AA B>c B>c | %7
w: Ec- co so-|lin- ga|e del- le sel- * *|* ve'a- mi-|ca, ch'al- le|no- te d'al- trui|pre- sta ri- spon- * * *|
 de/d/ c/B/A/G/ A4 | z2 d>e c2 BA | c2 z f c4 | z2 e2 ^c>d c/4c/4c/4c/4c/4c/4d/4e/4 | %11
w: * * * * * * * di|ch'è di Fil- li- de|mia be- si|che bra- * * * * * * * * *|
 ^c4 c>d c/c/c/d/ | ^c4 z2 A2 | B4 B4 | z2 Bc dBcd | e4 B4 | e4 B4 | z4 f4 | edcB c4 | %19
w: ma Al- * * * * *|ma s'el-|l'a- ma|per- che fug- ge'i miei la-|men- ti,|men- ti|deh|non mi lu- sin- gar|
 e2 AA B/c/d/c/ d/B/c/d/ | G/A/B/A/ B/G/A/^F/ G2 G2 | B/c/d/c/ d/B/c/d/ G/A/B/A/ B/G/A/^F/ | %22
w: dim- mi s'è ve- * * * * * * *|* * * * * * * * * ro|ve- * * * * * * * * * * * * * * *|
 G2 G2 z4 | e2 cd e2 d2 | cBcA B4 | B3 d decB | A4 d4- | d2 ^GG B2 G2 | B2 ^G2 z4 | z AFE F4 | %30
w: * ro,|Quan- do s'in- trec- cia'il|crin s'in- fio- ra'il se-|no, per me che l'a- mo'as-|sai pian-|* ge'o so- spi- ra,|spi- ra,|che ci- bo por-|
 G2 GG A3 F | E^F/^G/ A/B/c/d/ e2 B2 | E^F/^G/ A/B/c/d/ e2 B2 | z AAA A4 | A2 AG B2 c2 | %35
w: ge al- la dol- ce|pe- * * * * * * * ne,|pe- * * * * * * * ne,|e di tal e-|sca si nu- tri- sc'e|
 d>e B>^c d2 G2 | d>e B>^c d2 G2 | z2 c2 A>A AB | c3 c d3 d | e>f d>e c2 c2 | e>f d>e c2 c2 | %41
w: vi- * * * * ve,|vi- * * * * ve,|e chi gli ta- ra|fè dell' A- mor|mi- * * * * o,|mi- * * * * o,|
 z2 BB d4- | d2 AA BABG | A/G/^F/G/ A/G/A/B/ A/B/c/B/ A/B/c/d/ | %44
w: dil- le dun-|* que gen- til gio- co- sa'im-|ma- * * * * * * * * * * * * * * *|
 e/d/c/d/ B/c/d/B/ c/B/A/B/ ^G/A/B/G/ | ABAB AB/A/ B/A/B/4A/4^G/4A/4 | B3 B c2 A2 | B4 z dcB | %48
w: ||go che d'a- mar|lei piu che'l mio|
 d6 G2 | A/G/A/^F/ G/F/G/E/ F/E/D/E/ D/E/F/G/ | A/B/c/A/ B/A/B/G/ A4 | G8 |] %52
w: cor m'ap-|pa- * * * * * * * * * * * * * * *||go|
V:2
 G,,8 | G,,8 | G,,4 C,4 |"^#" D,4 G,,4 | G,,4 G,4- | G,2 E,2 F,4 | ^F,4 G,4 |"^#" G,,4 D,4 | %8
"^#" D,4 A,,4 | F,,4 F,4 | G,4 A,4 | A,8- |"^#" A,4 D,4 | G,,8 | G,6 F,2 |"^4""^#" E,4 E,4 | %16
"^4""^#" E,4 E,4 | D,8 | D,4 A,,4 | A,,4 G,,4 | G,,8 | G,,8 | G,,4 z4 | C,4 C2 B,2 | %24
"^6#" A,2 A,2 G,4 | G,4 G,2 E,2 | F,8 | E,8 |"^#" E,4 A,,4 |"^#" A,,4 D,4 | C,4 ^C,2 D,2 | %31
"^#" E,8 |"^#" E,8 |"^#""^#" A,,4 D,4 |"^#" D,4 G,,4 | G,,8 | G,,8 | C,4 F,4- | %38
"^7""^6" F,2 E,2 D,2 D,2 | C,8 | C,8 | G,,4 G,4 | ^F,4 G,4 |"^#" D,8 | A,,8 | A,,8 | %46
"^#""^#" E,4 A,,2 D,2 | G,,8 | G,,4 B,,4 |"^#" D,8 |"^#""^4""^#" D,2 D,4 D,2 |"^(-natural)" G,,8 |] %52

